X:1
T:Hobbit Reel
T:Jerry Everard
R:reel
M:C|
L:1/8
K:Emin
(AG) ||&quot;E&quot;~E3 G A2AB|cABG AGED | E3 cBAAB |
(3cBA (3ABd edBA | E3 cBAAB | cABG A3|E3 cBA2B |cdec A4 :| 
A|&quot;A min&quot; Beef gfeg | fedf edBA |B(3eeef gfeg | fedf e4|
 Beef gfeg | fedf edBA | Beef gfed |&quot;A min&quot; BAGF &quot;E&quot;E3:|
